src/icons/svg/DashboardFile.svg

<!-- Generated by IcoMoon.io -->
<svg version="1.1" xmlns="http://www.w3.org/2000/svg" width="30" height="24" viewBox="0 0 30 24">
<title>dashboard-file</title>
<path fill="#444" d="M27 0h-24c-1.65 0-2.985 1.35-2.985 3l-0.015 18c0 1.65 1.35 3 3 3h24c1.65 0 3-1.35 3-3v-18c0-1.65-1.35-3-3-3zM19.5 21h-16.5v-6h16.5v6zM19.5 13.5h-16.5v-6h16.5v6zM27 21h-6v-13.5h6v13.5z"></path>
</svg>

<svg width="30" height="24" viewBox="0 0 30 24" fill="none" xmlns="http://www.w3.org/2000/svg">
<path d="M27 0H3C1.35 0 0.015 1.35 0.015 3L0 21C0 22.65 1.35 24 3 24H27C28.65 24 30 22.65 30 21V3C30 1.35 28.65 0 27 0ZM19.5 21H3V15H19.5V21ZM19.5 13.5H3V7.5H19.5V13.5ZM27 21H21V7.5H27V21Z" fill="#1C2125"/>
</svg>
